client/resources/iconsets/breeze/src/svg/16x16/icon_checknames.svg

<svg xmlns="http://www.w3.org/2000/svg" width="16" height="16" viewBox="0 0 16 16">
 <path style="fill:#6d6d70"
       d="M 7 1 A 3 3 0 0 0 4 4 A 3 3 0 0 0 7 7 A 3 3 0 0 0 10 4 A 3 3 0 0 0 7 1 z M 7 8 A 6 5 0 0 0 1 13 A 6 2 0 0 0 7 15 A 6 2 0 0 0 9.71875 14.78125 L 9.46875 14.53125 A 0.750075 0.750075 0 0 1 9.46875 13.46875 L 10.46875 12.46875 A 0.750075 0.750075 0 0 1 11.53125 12.46875 L 12 12.9375 L 12.888672 12.048828 A 6 5 0 0 0 7 8 z "
       />
 <path style="fill:#3caa3e"
       d="m 15,11 -3,3 -1,-1 -1,1 1,1 1,1 4,-4 z"
       />
</svg>

<svg xmlns="http://www.w3.org/2000/svg" width="16" height="16"><path d="M7 1a3 3 0 1 0 0 6 3 3 0 1 0 0-6zm0 7a6 5 0 0 0-6 5 6 2 0 0 0 6 2 6 2 0 0 0 2.719-.219l-.25-.25a.75.75 0 0 1 0-1.062l1-1a.75.75 0 0 1 1.063 0l.469.469.889-.889A6 5 0 0 0 7 8z" fill="#6d6d70"/><path d="M15 11l-3 3-1-1-1 1 1 1 1 1 4-4z" fill="#3caa3e"/></svg>
